X: 35745
T: Salamanca Samba
R: reel
M: 4/4
K: Aminor
"A"e2ed ceBd|cAA^G _B=BcA|BE^GB EGBd|cAA^G ABcd|
~e3d ceBd|cAA^G _B=BcA|BE^GB EGBd|cAA^G ABcd|
e2ed ceBd|cAA^G _B=BcA|BE^GB EGBd|cAA^G ABcd|
~e3d ceBc-|cAA^G _B=BcA|BE^GB EGBd|cAA^G ABcd||
|:"B"~f3d Bdgf|e2ee cdec|dcBA ^GABE-|E^GBd cAAD:|
~f3d Bdgf|e2ee ^dede|dcBA ^GABE-|E^GBd cAAD|
~f3d Bdgf|e2ee cdec|dcBA ^GABE-|E^GBd cA3||
|:"C"EF^GA GFEF|^GAGF EFGA|BcBA ^GABc|dcBA ^GFE2|
EF^GA GFEF|^GAGF EFGF|~D3E FEDF|~E2 e2 ~E2 e2:|E4- Eeee||

